X: 32236
T: Phyllis' Birthday
R: reel
M: 4/4
K: Gmajor
|:BG G2 (3Bcd ed|B2 Ac BAGE|DEGA B3d|edBG A2 ed|
BG G2 (3Bcd ed|B2 Ac BAGE|DEGA BA (3Bcd|1 deBA G2 ed:|2 deBA G4||
|:dega b2 ag|egdc BG G2|dega b2 ag|eaag a2 ge|
dega b2 ag|egdc BGGF|DEGA BA (3Bcd|deBA G4:|

